src/components/Icon/assets/template.svg

<svg width="24" height="24" viewBox="0 0 24 24" fill="none" xmlns="http://www.w3.org/2000/svg">
<path fill-rule="evenodd" clip-rule="evenodd" d="M17 8.001H6.99998V7.0001H4.00018V17.0001H8.00018V19.0001H3.50018C2.6719 19.0001 2.00018 18.3284 2.00018 17.5001V6.5001C2.00018 5.67181 2.6719 5.0001 3.50018 5.0001H6.99998V4H17V5.0001H20.5002C21.3285 5.0001 22.0002 5.67181 22.0002 6.5001V8.0001H20.0002V7.0001H17V8.001ZM11.4142 22.0001H10.0002V20.5861L18.4852 12.1011L19.8992 13.5151L11.4142 22.0001ZM19.1916 11.3937L20.6066 12.8077L22.0206 11.3937C22.4116 11.0027 22.4116 10.3697 22.0206 9.9787C21.6296 9.5887 20.9976 9.5887 20.6066 9.9787L19.1916 11.3937Z" fill="#65676A"/>
</svg>

<svg xmlns="http://www.w3.org/2000/svg" width="24" height="24" viewBox="0 0 24 24">
    <path fill="#65676A" fill-rule="evenodd" d="M18.485 12.101l1.414 1.414L11.414 22H10v-1.414l8.485-8.485zM17 4v1h3.5c.78 0 1.42.595 1.493 1.356L22 6.5V8h-2V7h-3v1.001H7V7H4v10h4v2H3.5c-.828 0-1.5-.672-1.5-1.5v-11C2 5.672 2.672 5 3.5 5H7V4h10zm5.02 5.979c.392.39.392 1.024 0 1.415l-1.413 1.414-1.415-1.414 1.415-1.415c.39-.39 1.023-.39 1.414 0z"/>
</svg>
